X: 1
T: Mairtin O'Connor's
M: 4/4
L: 1/8
R: reel
K: Edor
(3(FED)E2 ~E2DE|~F2ED FGAD|(3(FED)E2 ~E2DE|FDEF D4|
(3(FED)E2 ~E2DE|~F2ED FGAD|(3(FED)E2 ~E2DE|FDEF D4::
G4 G3A-|AGFD F4|(3(FED)E2 E2DE|FDEF DEFD|
G4 G3A-|AGFD F4|(3(FED)E2 E2DE|FDEF D4::
B3 f2 efg|afge f2fd|B2B2 effe|dBBA Bcdc|
B3 f2 efg|afge f2fd|B2B2 effe|dBBA Bcdc:|
